X:1
T:Бах. Энгармонизм. Клавир
T:Bach's enharmonic modulation
T:Mass in B minor, BWV 232, Credo, "Et expecto resurrectionem mortuorum"
%%score { 1 | 2 | 3 | 4 | 5 }
L:1/8
Q:1/4=70
M:4/4
K:A
V:1 treble nm="Piano" snm="Pno."
V:2 treble 
V:3 treble 
V:4 treble-8 
V:5 bass 
V:1
"^Leading-tone seventh chord\nto dominant in g minor.\n" (_B8 | %1
"^Cadential 6-4 chord\nin g minor \n" _B8 |"^Dominant\nin g minor\n" A4 d4 | %3
"^Leading-tone 6-4-3 chord\nto tonic in g minor.\n" d4"^Leading-tone 6-5 chord\nto dominant in e♭ minor.\n""^=" _e4 | %4
"^Cadential 6-4 chord\n\nin e♭ minor \n\n" _e8) |] %5
V:2
 (=G8 | =G8 | F4 A4 | A4 A4 | _B8) |] %5
V:3
 (_B,2 A,2 =G,2 A,2 | %1
 _B,2 =G,2"^Leading-tone seventh chord\nto dominant in g minor\nat organ point\n\n" E4 | A,4 F4 | %3
 F4"_Enharmonic equality" F4 | _G8) |] %5
V:4
 (E4 e4 | d4 c4 | d4 d4 | d4 A2 =c2 | _e6 _d2) |] %5
V:5
 (^C,8 | D,8 | D,4 D4 | D4 =C4 | _B,8) |] %5

